app/img/main/watsapp.svg

<svg width="21" height="21" viewBox="0 0 21 21" fill="none" xmlns="http://www.w3.org/2000/svg">
<path d="M17.9268 3.0625C15.9512 1.09375 13.3171 0 10.5366 0C4.7561 0 0.0731696 4.66667 0.0731696 10.4271C0.0731696 12.25 0.585366 14.0729 1.46341 15.6042L0 21L5.56098 19.5417C7.09756 20.3438 8.78049 20.7812 10.5366 20.7812C16.3171 20.7812 21 16.1146 21 10.3542C20.9268 7.65625 19.9024 5.03125 17.9268 3.0625ZM15.5854 14.1458C15.3659 14.7292 14.3415 15.3125 13.8293 15.3854C13.3902 15.4583 12.8049 15.4583 12.2195 15.3125C11.8537 15.1667 11.3415 15.0208 10.7561 14.7292C8.12195 13.6354 6.43903 11.0104 6.29268 10.7917C6.14634 10.6458 5.19512 9.40625 5.19512 8.09375C5.19512 6.78125 5.85366 6.19792 6.07317 5.90625C6.29268 5.61458 6.58536 5.61458 6.80488 5.61458C6.95122 5.61458 7.17073 5.61458 7.31707 5.61458C7.46341 5.61458 7.68293 5.54167 7.90244 6.05208C8.12195 6.5625 8.63414 7.875 8.70731 7.94792C8.78049 8.09375 8.78049 8.23958 8.70731 8.38542C8.63414 8.53125 8.56097 8.67708 8.41463 8.82292C8.26829 8.96875 8.12195 9.1875 8.04878 9.26042C7.90244 9.40625 7.7561 9.55208 7.90244 9.77083C8.04878 10.0625 8.56097 10.8646 9.36585 11.5937C10.3902 12.4687 11.1951 12.7604 11.4878 12.9063C11.7805 13.0521 11.9268 12.9792 12.0732 12.8333C12.2195 12.6875 12.7317 12.1042 12.878 11.8125C13.0244 11.5208 13.2439 11.5938 13.4634 11.6667C13.6829 11.7396 15 12.3958 15.2195 12.5417C15.5122 12.6875 15.6585 12.7604 15.7317 12.8333C15.8049 13.0521 15.8049 13.5625 15.5854 14.1458Z" fill="white"/>
</svg>

<svg width="21" height="21" fill="none" xmlns="http://www.w3.org/2000/svg"><path d="M17.927 3.063A10.428 10.428 0 0010.537 0C4.757 0 .073 4.667.073 10.427c0 1.823.512 3.646 1.39 5.177L0 21l5.561-1.458c1.537.802 3.22 1.24 4.976 1.24 5.78 0 10.463-4.667 10.463-10.428-.073-2.698-1.098-5.323-3.073-7.291zm-2.342 11.083c-.22.583-1.244 1.166-1.756 1.24a4.104 4.104 0 01-1.61-.073c-.365-.146-.877-.292-1.463-.584-2.634-1.094-4.317-3.719-4.463-3.937-.147-.146-1.098-1.386-1.098-2.698 0-1.313.659-1.896.878-2.188.22-.291.512-.291.732-.291h.512c.146 0 .366-.073.585.437.22.51.732 1.823.805 1.896a.463.463 0 010 .437 1.525 1.525 0 01-.292.438c-.147.146-.293.364-.366.437-.147.146-.293.292-.147.51.147.293.659 1.095 1.464 1.824 1.024.875 1.83 1.166 2.122 1.312.293.146.439.073.585-.073.146-.146.659-.729.805-1.02.146-.292.366-.22.585-.146.22.073 1.537.729 1.757.875.292.146.438.218.512.291.073.22.073.73-.147 1.313z" fill="#fff"/></svg>
